dist/img/svg/logodev.svg

<svg  fill="none" xmlns="http://www.w3.org/2000/svg">
<path opacity="0.75" d="M8.41317 0.921875H0.814453V18.8468H8.41317V0.921875Z" fill="white" fill-opacity="0.2"/>
<path opacity="0.75" d="M106.645 0.921875H99.0461V18.8468H106.645V0.921875Z" fill="white" fill-opacity="0.2"/>
<path opacity="0.75" d="M8.41317 0.921875H0.814453V13.8184H8.41317C11.9592 13.8184 14.8338 10.9314 14.8338 7.37011C14.8338 3.80879 11.9592 0.921875 8.41317 0.921875Z" fill="white" fill-opacity="0.2"/>
<path opacity="0.75" d="M33.5656 18.8468H21.5096V0.921875L33.5656 18.8468Z" fill="white" fill-opacity="0.2"/>
<path opacity="0.75" d="M27.1449 0.921875H21.5096V13.8184H27.1449C28.0907 13.8184 28.9877 13.6113 29.7964 13.2426C32.019 12.2287 33.5656 9.98159 33.5656 7.37011C33.5656 3.80879 30.691 0.921875 27.1449 0.921875Z" fill="white" fill-opacity="0.2"/>
<path opacity="0.75" d="M82.0934 0.921875L72.745 18.8468H82.0934H91.4421L82.0934 0.921875Z" fill="white" fill-opacity="0.2"/>
<path opacity="0.75" d="M72.4799 0.921875L63.1315 18.8468H72.4799H81.8283L72.4799 0.921875Z" fill="white" fill-opacity="0.2"/>
<path opacity="0.75" d="M49.5877 18.8468C54.5163 18.8468 58.5117 14.8342 58.5117 9.88433C58.5117 4.9345 54.5163 0.921875 49.5877 0.921875C44.659 0.921875 40.6636 4.9345 40.6636 9.88433C40.6636 14.8342 44.659 18.8468 49.5877 18.8468Z" fill="white" fill-opacity="0.2"/>
<path opacity="0.75" d="M178.467 0.921875L169.119 18.8468H178.467H187.816L178.467 0.921875Z" fill="white" fill-opacity="0.2"/>
<path opacity="0.75" d="M168.854 0.921875L159.505 18.8468H168.854H178.202L168.854 0.921875Z" fill="white" fill-opacity="0.2"/>
<path opacity="0.75" d="M146.278 18.8468C151.206 18.8468 155.202 14.8342 155.202 9.88433C155.202 4.9345 151.206 0.921875 146.278 0.921875C141.349 0.921875 137.354 4.9345 137.354 9.88433C137.354 14.8342 141.349 18.8468 146.278 18.8468Z" fill="white" fill-opacity="0.2"/>
<path opacity="0.75" d="M129.377 3.88688C127.744 2.06671 125.379 0.921875 122.747 0.921875C122.099 0.921875 121.468 0.992865 120.86 1.12443C116.838 1.99406 113.823 5.58496 113.823 9.88433C113.823 14.1837 116.838 17.7746 120.86 18.6442C121.468 18.7758 122.099 18.8468 122.747 18.8468C125.379 18.8468 127.744 17.702 129.377 15.8818L125.916 9.88433L129.377 3.88688Z" fill="white" fill-opacity="0.2"/>
<path opacity="0.75" d="M129.377 3.88688C127.744 2.0667 125.379 0.921875 122.747 0.921875C122.099 0.921875 121.469 0.992865 120.86 1.12443L125.916 9.88433L129.377 3.88688Z" fill="white" fill-opacity="0.2"/>
<path opacity="0.75" d="M120.86 18.6437C121.469 18.7753 122.099 18.8463 122.747 18.8463C125.379 18.8463 127.744 17.7014 129.378 15.8812L125.916 9.88379L120.86 18.6437Z" fill="white" fill-opacity="0.2"/>
<path opacity="0.75" d="M43.2772 16.2219C44.8922 17.8437 47.1232 18.8468 49.5876 18.8468C54.5163 18.8468 58.5116 14.8342 58.5116 9.88437C58.5116 7.40943 57.5129 5.16875 55.8979 3.54688L43.2772 16.2219Z" fill="white" fill-opacity="0.2"/>
<path opacity="0.75" d="M139.967 16.2219C141.582 17.8438 143.813 18.8468 146.278 18.8468C151.206 18.8468 155.202 14.8343 155.202 9.88437C155.202 7.40943 154.203 5.16876 152.588 3.54688L139.967 16.2219Z" fill="white" fill-opacity="0.2"/>
</svg>

<svg fill="none" xmlns="http://www.w3.org/2000/svg"><path opacity=".75" d="M8.413.922H.814v17.925h7.6V.922zm98.232 0h-7.599v17.925h7.599V.922z" fill="#fff" fill-opacity=".2"/><path opacity=".75" d="M8.413.922H.814v12.896h7.6c3.545 0 6.42-2.887 6.42-6.448 0-3.561-2.875-6.448-6.42-6.448zm25.153 17.925H21.51V.922l12.056 17.925z" fill="#fff" fill-opacity=".2"/><path opacity=".75" d="M27.145.922H21.51v12.896h5.635c.946 0 1.843-.207 2.651-.575a6.45 6.45 0 003.77-5.873c0-3.561-2.875-6.448-6.421-6.448zm54.948 0l-9.348 17.925h18.698L82.092.922z" fill="#fff" fill-opacity=".2"/><path opacity=".75" d="M72.48.922l-9.35 17.925h18.699L72.48.922zM49.588 18.847c4.928 0 8.924-4.013 8.924-8.963 0-4.95-3.996-8.962-8.924-8.962-4.929 0-8.924 4.013-8.924 8.962 0 4.95 3.995 8.963 8.924 8.963zM178.467.922l-9.348 17.925h18.697L178.467.922z" fill="#fff" fill-opacity=".2"/><path opacity=".75" d="M168.854.922l-9.349 17.925h18.697L168.854.922zm-22.576 17.925c4.928 0 8.924-4.013 8.924-8.963 0-4.95-3.996-8.962-8.924-8.962-4.929 0-8.924 4.013-8.924 8.962 0 4.95 3.995 8.963 8.924 8.963zm-16.901-14.96a8.882 8.882 0 00-8.517-2.763 8.955 8.955 0 00-7.037 8.76c0 4.3 3.015 7.89 7.037 8.76a8.882 8.882 0 008.517-2.762l-3.461-5.998 3.461-5.997z" fill="#fff" fill-opacity=".2"/><path opacity=".75" d="M129.377 3.887a8.882 8.882 0 00-8.517-2.763l5.056 8.76 3.461-5.997zm-8.517 14.757a8.886 8.886 0 008.518-2.762l-3.462-5.998-5.056 8.76zm-77.583-2.422a8.878 8.878 0 006.31 2.625c4.93 0 8.925-4.013 8.925-8.963a8.954 8.954 0 00-2.614-6.337l-12.62 12.675zm96.69 0a8.877 8.877 0 006.311 2.625c4.928 0 8.924-4.013 8.924-8.963a8.954 8.954 0 00-2.614-6.337l-12.621 12.675z" fill="#fff" fill-opacity=".2"/></svg>
